X:1
T:Lord Randal
M:3/4
L:1/4
K:C
 D/2D/2| G G G| A G G| A G E| G2 B/2B/2| d d d| e d d| e d B| d2 d|\
 g d g| e d d/2e/2| d B G| B2 D/2D/2| G G G| B d G| B B A| G2||
